X: 38812
T: Suil Eile
R: reel
M: 4/4
K: Adorian
eA A2 A2 Bd|eA A2 ABGd|eA A2 A2 ga|g3 a gedg|
eA A2 A2 Bd|eA A2 ABGd|eA A2 A2 ga|b3 a g2 fg||
eg a2 a2 eg|a3 (a a)gef|g3 (g g2) ag|b3 a gedg:|

